X: 56
T: Al Al Olmuş
C: Ahmet Avni Konuk
O: Turkey
F: http://compmusic.upf.edu/node/140
N: tahir--kupe--duyek--al_al--ahmet_avni_konuk
N: makam= tahir
N: form= kupe
N: usul= duyek = 8/4
M: 8/4
L: 1/16
K: C _2/4B ^3/4f  
Q: 1/4=57
%%MIDI tuningsystem comma53
z4 g2g2 g4 a4 a8 a2b2 c'3b  | a4 a2b2 .a4 g4 f4 e2f2 a2g2 ^2/4f2e2  | 
w:  Al  *  *  *  al  ol  |  *  muş  *  *  kı zar *  *  mış   | 
d4 d2d2 d4 e2=f2 e2d2 c2.B2 g4 ^3/4f4  | \
w:  *  şerm_ *  *  i *  le  *  *  *  rû  | 
g4 f4 f2e2 d4 e4 e2d2 d6z2  | 
w:  *  yi  *  *  he mân    | 
z4 e2f2 e4 f4 g3f e2f2 g8  | z4 e2f2 e4 g4 a2g2 ^2/4f2e2 d8  | \
w:  Böy *  *  le  bir  *  *  *  Tâ  |  hir  *  *  ne seb  *  *  *  gör  | 
z4 =f4 f4 f2e2 e2d4e2 d2c2 B2A2  | 
w:  müş  *  de *  ğil  *  *  çeşm_  | 
G4 d2d2 d4 c2B2 B2A2 {c}B2A2 A6z2  | |


